svg/u1f993.svg

<svg viewBox="0 0 128 128" xmlns="http://www.w3.org/2000/svg">
  <path d="M48.37,30.91c0,0-11.64-10.14-12.76-11.26c-1.13-1.13-3.94-3.19-3.38-4.69 c0.56-1.5,9.95-5.26,16.52-6.57s20.23-3.38,32.43,2.25s22.01,13.14,30.64,27.03s10.91,33.24,11.45,43.92 c0.56,11.23-3.63,27.24-3.63,27.24l-1.82,2.79L48.37,30.91z" fill="#464C4F"/>
  <path d="M122.49,94.27c-0.74,8.26-2.86,14.73-2.86,14.73l-1.5,3.19L48.67,31.47l10.11-2.82L45.9,9.09 c2.43-1.02,7.29-1.97,12.78-1.97l6.65,26.11l8.55-25.09c3.7,0.53,9.54,3.27,10.88,4.26L71.88,39.22l4.08,1.48l17.1-23.3 c2.39,1.23,3.98,2.39,5.84,4.5L81.59,44.64l5.63,4.15l17.95-20.41c2.5,2.36,4.29,4.8,6.16,8.41l-17.7,16.65L97.01,59l19.22-12.67 c1.16,2.32,1.79,3.84,2.22,6.02L99.33,63.71l4.65,5.21l16.61-9.08c0.81,2.18,1.27,4.01,1.37,6.55l-17.77,8.94l2.96,6.69l15.94-5.77 c0.49,2.39,0.53,3.7,0.21,6.05l-13.55,4.93l3.24,8.09L122.49,94.27z" fill="#DFDFE0"/>
  <path d="M56.53,27.11c0,0-6.48,0.28-10.56,3.38S34.01,41.61,30.21,46.11s-10,12.67-10,12.67l8.02,24.64 l5.07,6.76c0,0,9.15,1.27,17.03-1.27c7.88-2.53,12.95-6.19,12.95-6.19s-1.55,9.85-2.82,18.44c-1.27,8.59-2.86,19.01-2.16,19.85 c0.7,0.84,15.67,1.69,30.88,1.27s29-1.41,29.7-2.11c0.7-0.7,2.82-20.27-6.76-45.19S86.38,38.93,84.83,37.95 c-1.55-0.99-6.05-3.1-6.05-3.1s0.56-12.11-2.82-18.16S71.8,7.64,69.62,7.4c-2.6-0.28-7.67,6.26-9.43,9.01 C57.97,19.87,56.53,27.11,56.53,27.11z" fill="#2F2F2F"/>
  <path d="M22.53,58.86l10.49-13.09c0,0,1.62,2.04-1.13,6.05c-1.83,2.68-5.98,7.81-5.98,7.81L22.53,58.86z" fill="#FFFFFF"/>
  <path d="M28.47,78.02c0,0,10.3-9.82,16.89-8.54c8.26,1.6,6.62,15.3,6.62,15.3s-1.36,0.7-2.63,1.08 c-0.89,0.26-2.82,0.59-2.82,0.59s0.8-8.52-2.67-10.02c-3.47-1.5-7.23,0.19-10.14,1.88c-2.91,1.69-3.94,2.25-3.94,2.25L28.47,78.02z" fill="#FFFFFF"/>
  <path d="M32.69,85.39c0,0,2.25-2.82,5.07-2.35c2.82,0.47,2.96,4.32,2.96,4.32s-2.11,0.14-3.52,0.14 s-5.16-0.14-5.16-0.14L32.69,85.39z" fill="#FFFFFF"/>
  <path d="M28.47,64.04l1.5,5.77c0,0,8.49-10.46,21.02-6.01s7.27,17.55,7.27,17.55l3.43-1.6 c0,0,1.32-5.78,0.19-9.85c-1.5-5.4-5.77-7.88-4.69-13.37s2.06-7.84,2.91-9.29c0.48-0.83,2.91-3.43,4.25-1.41 c2.23,3.36-1.2,5.12-0.49,11.36s2.61,5.46,4.69,12.76c0.84,2.96-0.14,9.1-0.19,10.98c-0.05,1.88-0.7,5.58-0.7,5.58 s12.2-6.89,16.14-9.67c7.37-5.19,17.64-14.55,17.64-14.55s-0.44-1.11-1.27-2.39c-0.63-0.99-1.22-1.64-1.22-1.64 s-7.53,5.49-11.1,7.98c-3.57,2.49-12.88,8.26-13.68,8.73s-2.2,1.41-2.58,0.99c-0.63-0.7,1.29-5.56,2.18-8.38 c0.89-2.82,4.95-13.21,6.31-16.96c1.36-3.75,3.52-8.92,3.52-8.92s-1.45-1.31-2.44-1.78s-3.14-1.27-3.14-1.27s-2.44,6.19-3.28,7.51 c-0.84,1.31-2.96,5.4-4.83,4.04c-1.88-1.36-1.83-7.65,1.41-11.97c1.73-2.31,3.8-3.05,4.08-9.43s-1.85-10.51-2.82-12.67 c-1.08-2.42-2.16-4.46-3.1-4.41c-0.94,0.05-4.15,3.85-5.56,5.96c-1.27,1.9-2.42,3.71-2.98,7.79c-0.56,4.08-0.61,4.46-0.61,4.46 l-2.02,0.75c0,0-0.96,10.46-3.26,12.2c-2.3,1.74-6.05,1.2-6.45-1.78c-0.52-3.91-0.33-7.93-0.33-7.93s-1.5,0.52-2.53,1.5 c-1.03,0.99-1.83,1.22-2.67,5.44c-0.84,4.22-0.91,9.58-2.82,12.72c-2.11,3.47-3.94,6.34-7.32,8.82S28.47,64.04,28.47,64.04z" fill="#FFFFFF"/>
  <path d="M89.76,47.43c0,0-5.33,11.83-5.16,12.44s10.23-7.46,10.23-7.46s-0.97-1.21-2.25-2.63 C91.05,48.09,89.76,47.43,89.76,47.43z" fill="#FFFFFF"/>
  <path d="M54.23,53.58c0,2.8-1.08,5.58-4.22,5.3c-2.34-0.21-4.27-2.5-4.27-5.3c0-2.8,1.9-5.07,4.25-5.07 S54.23,50.78,54.23,53.58z" fill="#0B0B0B"/>
  <path d="M63.71,101.51l-0.84,7.67c0,0,11.76-4.43,19.29-9.36c7.53-4.93,19.36-17.25,21.89-19.99 s3.8-4.65,3.8-4.65s-0.46-1.74-1.2-3.24c-0.73-1.5-1.62-2.89-1.62-2.89S90.39,84.62,88.35,86.24c-2.04,1.62-7.81,6.76-12.18,9.15 C71.81,97.78,63.71,101.51,63.71,101.51z" fill="#FFFFFF"/>
  <path d="M66.88,118.9c0.78-0.78,14.15-5.84,19.22-10.35c1.79-1.59,13.23-12.32,17.03-16.61 s7.88-9.08,7.88-9.08s0.28,1.41,0.77,3.03c0.48,1.57,0.7,2.75,0.7,2.75s-4.79,7.25-7.32,10.49c-2.53,3.24-8.52,9.71-10,11.12 c-1.48,1.41-2.96,3.1-6.9,5.49c-1.4,0.85-6.62,3.52-6.62,3.52s-4.15,0.07-6.97,0.14C73.42,119.42,66.53,119.25,66.88,118.9z" fill="#FFFFFF"/>
  <path d="M114.46,99.82c0,0-4.15,8.02-5.56,10.28c-1.41,2.25-5.56,7.88-5.56,7.88s5.7-0.21,7.67-0.28 s5-0.35,5-0.7c0-0.8-0.56-9.08-0.63-10.91S115.03,98.77,114.46,99.82z" fill="#FFFFFF"/>
  <path d="M68.64,18.45c-1.48-0.16-3.52,4.86-3.94,7.11c-1.27,6.69-1.06,9.71,2.6,9.71 c4.05,0,3.73-7.32,3.73-8.94C71.03,24.72,69.91,18.59,68.64,18.45z" fill="#454C50"/>
  <path d="M29.88,60c-2.89-2.64-7.41-3.57-9.67-1.22c-2.25,2.35-3.57,5.35-5.44,7.32 c-1.88,1.97-5.82,5.35-7.98,9.95S3.6,86.66,6.6,91.63s9.1,8.26,16.61,5.63c7.51-2.63,10.51-6.48,10.79-9.29s0-6.95-2.91-9.29 c-1.18-0.95-3.28-2.25-2.53-4.04S35.32,64.98,29.88,60z" fill="#464C4F"/>
  <path d="M11.11,79.71c-0.1,1.56,1.92,1.27,2.63,2.72c0.7,1.45-0.94,4.27,0.89,4.6 c1.83,0.33,4.18-3.28,3.05-6.71C16.55,76.9,11.25,77.46,11.11,79.71z" fill="#303030"/>
  <path d="M14.23,97.64c0,0,5-2.44,7.25-4.55c2.19-2.06,4.32-4.55,4.83-5.35c0.52-0.8,1.6-2.25,2.53-1.6 c0.94,0.66,0.52,1.83-0.09,2.72c-0.61,0.89-2.16,3.1-4.6,5.35c-2.11,1.95-3.14,2.44-4.69,3.28c-1.13,0.61-2.21,0.7-2.21,0.7 s-0.88,0.01-1.79-0.14C15.11,98,14.23,97.64,14.23,97.64z" fill="#303030"/>
</svg>

<svg viewBox="0 0 128 128" xmlns="http://www.w3.org/2000/svg">
  <defs/>
  <path d="M48.37,30.91 C48.37,30.91 36.73,20.77 35.61,19.65 C34.48,18.52 31.67,16.46 32.23,14.96 C32.79,13.46 42.18,9.7 48.75,8.39 C55.32,7.08 68.98,5.01 81.18,10.64 C93.38,16.27 103.19,23.78 111.82,37.67 C120.45,51.56 122.73,70.91 123.27,81.59 C123.83,92.82 119.64,108.83 119.64,108.83 L117.82,111.62 L48.37,30.91 Z" fill="#464C4F"/>
  <path d="M122.49,94.27 C121.75,102.53 119.63,109 119.63,109 L118.13,112.19 L48.67,31.47 L58.78,28.65 L45.9,9.09 C48.33,8.07 53.19,7.12 58.68,7.12 L65.33,33.23 L73.88,8.14 C77.58,8.67 83.42,11.41 84.76,12.4 L71.88,39.22 L75.96,40.7 L93.06,17.4 C95.45,18.63 97.04,19.79 98.9,21.9 L81.59,44.64 L87.22,48.79 L105.17,28.38 C107.67,30.74 109.46,33.18 111.33,36.79 L93.63,53.44 L97.01,59 L116.23,46.33 C117.39,48.65 118.02,50.17 118.45,52.35 L99.33,63.71 L103.98,68.92 L120.59,59.84 C121.4,62.02 121.86,63.85 121.96,66.39 L104.19,75.33 L107.15,82.02 L123.09,76.25 C123.58,78.64 123.62,79.95 123.3,82.3 L109.75,87.23 L112.99,95.32 L122.49,94.27 Z" fill="#DFDFE0"/>
  <path d="M56.53,27.11 C56.53,27.11 50.05,27.39 45.97,30.49 C41.89,33.59 34.01,41.61 30.21,46.11 C26.41,50.61 20.21,58.78 20.21,58.78 L28.23,83.42 L33.3,90.18 C33.3,90.18 42.45,91.45 50.33,88.91 C58.21,86.38 63.28,82.72 63.28,82.72 C63.28,82.72 61.73,92.57 60.46,101.16 C59.19,109.75 57.6,120.17 58.3,121.01 C59,121.85 73.97,122.7 89.18,122.28 C104.39,121.86 118.18,120.87 118.88,120.17 C119.58,119.47 121.7,99.9 112.12,74.98 C102.54,50.06 86.38,38.93 84.83,37.95 C83.28,36.96 78.78,34.85 78.78,34.85 C78.78,34.85 79.34,22.74 75.96,16.69 C72.58,10.64 71.8,7.64 69.62,7.4 C67.02,7.12 61.95,13.66 60.19,16.41 C57.97,19.87 56.53,27.11 56.53,27.11 Z" fill="#2F2F2F"/>
  <path d="M22.53,58.86 L33.02,45.77 C33.02,45.77 34.64,47.81 31.89,51.82 C30.06,54.5 25.91,59.63 25.91,59.63 L22.53,58.86 Z" fill="#FFFFFF"/>
  <path d="M28.47,78.02 C28.47,78.02 38.77,68.2 45.36,69.48 C53.62,71.08 51.98,84.78 51.98,84.78 C51.98,84.78 50.62,85.48 49.35,85.86 C48.46,86.12 46.53,86.45 46.53,86.45 C46.53,86.45 47.33,77.93 43.86,76.43 C40.39,74.93 36.63,76.62 33.72,78.31 C30.81,80 29.78,80.56 29.78,80.56 L28.47,78.02 Z" fill="#FFFFFF"/>
  <path d="M32.69,85.39 C32.69,85.39 34.94,82.57 37.76,83.04 C40.58,83.51 40.72,87.36 40.72,87.36 C40.72,87.36 38.61,87.5 37.2,87.5 C35.79,87.5 32.04,87.36 32.04,87.36 L32.69,85.39 Z" fill="#FFFFFF"/>
  <path d="M28.47,64.04 L29.97,69.81 C29.97,69.81 38.46,59.35 50.99,63.8 C63.52,68.25 58.26,81.35 58.26,81.35 L61.69,79.75 C61.69,79.75 63.01,73.97 61.88,69.9 C60.38,64.5 56.11,62.02 57.19,56.53 C58.27,51.04 59.25,48.69 60.1,47.24 C60.58,46.41 63.01,43.81 64.35,45.83 C66.58,49.19 63.15,50.95 63.86,57.19 C64.57,63.43 66.47,62.65 68.55,69.95 C69.39,72.91 68.41,79.05 68.36,80.93 C68.31,82.81 67.66,86.51 67.66,86.51 C67.66,86.51 79.86,79.62 83.8,76.84 C91.17,71.65 101.44,62.29 101.44,62.29 C101.44,62.29 101,61.18 100.17,59.9 C99.54,58.91 98.95,58.26 98.95,58.26 C98.95,58.26 91.42,63.75 87.85,66.24 C84.28,68.73 74.97,74.5 74.17,74.97 C73.37,75.44 71.97,76.38 71.59,75.96 C70.96,75.26 72.88,70.4 73.77,67.58 C74.66,64.76 78.72,54.37 80.08,50.62 C81.44,46.87 83.6,41.7 83.6,41.7 C83.6,41.7 82.15,40.39 81.16,39.92 C80.17,39.45 78.02,38.65 78.02,38.65 C78.02,38.65 75.58,44.84 74.74,46.16 C73.9,47.47 71.78,51.56 69.91,50.2 C68.03,48.84 68.08,42.55 71.32,38.23 C73.05,35.92 75.12,35.18 75.4,28.8 C75.68,22.42 73.55,18.29 72.58,16.13 C71.5,13.71 70.42,11.67 69.48,11.72 C68.54,11.77 65.33,15.57 63.92,17.68 C62.65,19.58 61.5,21.39 60.94,25.47 C60.38,29.55 60.33,29.93 60.33,29.93 L58.31,30.68 C58.31,30.68 57.35,41.14 55.05,42.88 C52.75,44.62 49,44.08 48.6,41.1 C48.08,37.19 48.27,33.17 48.27,33.17 C48.27,33.17 46.77,33.69 45.74,34.67 C44.71,35.66 43.91,35.89 43.07,40.11 C42.23,44.33 42.16,49.69 40.25,52.83 C38.14,56.3 36.31,59.17 32.93,61.65 C29.55,64.13 28.47,64.04 28.47,64.04 Z" fill="#FFFFFF"/>
  <path d="M89.76,47.43 C89.76,47.43 84.43,59.26 84.6,59.87 C84.77,60.48 94.83,52.41 94.83,52.41 C94.83,52.41 93.86,51.2 92.58,49.78 C91.05,48.09 89.76,47.43 89.76,47.43 Z" fill="#FFFFFF"/>
  <path d="M54.23,53.58 C54.23,56.38 53.15,59.16 50.01,58.88 C47.67,58.67 45.74,56.38 45.74,53.58 C45.74,50.78 47.64,48.51 49.99,48.51 C52.34,48.51 54.23,50.78 54.23,53.58 Z" fill="#0B0B0B"/>
  <path d="M63.71,101.51 L62.87,109.18 C62.87,109.18 74.63,104.75 82.16,99.82 C89.69,94.89 101.52,82.57 104.05,79.83 C106.58,77.09 107.85,75.18 107.85,75.18 C107.85,75.18 107.39,73.44 106.65,71.94 C105.92,70.44 105.03,69.05 105.03,69.05 C105.03,69.05 90.39,84.62 88.35,86.24 C86.31,87.86 80.54,93 76.17,95.39 C71.81,97.78 63.71,101.51 63.71,101.51 Z" fill="#FFFFFF"/>
  <path d="M66.88,118.9 C67.66,118.12 81.03,113.06 86.1,108.55 C87.89,106.96 99.33,96.23 103.13,91.94 C106.93,87.65 111.01,82.86 111.01,82.86 C111.01,82.86 111.29,84.27 111.78,85.89 C112.26,87.46 112.48,88.64 112.48,88.64 C112.48,88.64 107.69,95.89 105.16,99.13 C102.63,102.37 96.64,108.84 95.16,110.25 C93.68,111.66 92.2,113.35 88.26,115.74 C86.86,116.59 81.64,119.26 81.64,119.26 C81.64,119.26 77.49,119.33 74.67,119.4 C73.42,119.42 66.53,119.25 66.88,118.9 Z" fill="#FFFFFF"/>
  <path d="M114.46,99.82 C114.46,99.82 110.31,107.84 108.9,110.1 C107.49,112.35 103.34,117.98 103.34,117.98 C103.34,117.98 109.04,117.77 111.01,117.7 C112.98,117.63 116.01,117.35 116.01,117 C116.01,116.2 115.45,107.92 115.38,106.09 C115.31,104.26 115.03,98.77 114.46,99.82 Z" fill="#FFFFFF"/>
  <path d="M68.64,18.45 C67.16,18.29 65.12,23.31 64.7,25.56 C63.43,32.25 63.64,35.27 67.3,35.27 C71.35,35.27 71.03,27.95 71.03,26.33 C71.03,24.72 69.91,18.59 68.64,18.45 Z" fill="#454C50"/>
  <path d="M29.88,60 C26.99,57.36 22.47,56.43 20.21,58.78 C17.96,61.13 16.64,64.13 14.77,66.1 C12.89,68.07 8.95,71.45 6.79,76.05 C4.63,80.65 3.6,86.66 6.6,91.63 C9.6,96.6 15.7,99.89 23.21,97.26 C30.72,94.63 33.72,90.78 34,87.97 C34.28,85.16 34,81.02 31.09,78.68 C29.91,77.73 27.81,76.43 28.56,74.64 C29.31,72.85 35.32,64.98 29.88,60 Z" fill="#464C4F"/>
  <path d="M11.11,79.71 C11.01,81.27 13.03,80.98 13.74,82.43 C14.44,83.88 12.8,86.7 14.63,87.03 C16.46,87.36 18.81,83.75 17.68,80.32 C16.55,76.9 11.25,77.46 11.11,79.71 Z" fill="#303030"/>
  <path d="M14.23,97.64 C14.23,97.64 19.23,95.2 21.48,93.09 C23.67,91.03 25.8,88.54 26.31,87.74 C26.83,86.94 27.91,85.49 28.84,86.14 C29.78,86.8 29.36,87.97 28.75,88.86 C28.14,89.75 26.59,91.96 24.15,94.21 C22.04,96.16 21.01,96.65 19.46,97.49 C18.33,98.1 17.25,98.19 17.25,98.19 C17.25,98.19 16.37,98.2 15.46,98.05 C15.11,98 14.23,97.64 14.23,97.64 Z" fill="#303030"/>
</svg>
